_src/static/img/icon/file.svg

<svg width="32" height="44" viewBox="0 0 32 44" fill="none" xmlns="http://www.w3.org/2000/svg">
<path d="M4 0C1.8013 0 0 1.8013 0 4V40C0 42.1987 1.8013 44 4 44H28C30.1987 44 32 42.1987 32 40V11H25C22.8013 11 21 9.1987 21 7V0H4ZM23 0.433594V7C23 8.1253 23.8747 9 25 9H31.4199L23 0.433594ZM7.00586 16H24.9941C25.2594 16 25.5137 16.1054 25.7012 16.2929C25.8888 16.4804 25.9941 16.7348 25.9941 17C25.9941 17.2652 25.8888 17.5196 25.7012 17.7071C25.5137 17.8946 25.2594 18 24.9941 18H7.00586C6.74064 18 6.48629 17.8946 6.29875 17.7071C6.11122 17.5196 6.00586 17.2652 6.00586 17C6.00586 16.7348 6.11122 16.4804 6.29875 16.2929C6.48629 16.1054 6.74064 16 7.00586 16ZM7.00586 22H24.9941C25.2594 22 25.5137 22.1054 25.7012 22.2929C25.8888 22.4804 25.9941 22.7348 25.9941 23C25.9941 23.2652 25.8888 23.5196 25.7012 23.7071C25.5137 23.8946 25.2594 24 24.9941 24H7.00586C6.74064 24 6.48629 23.8946 6.29875 23.7071C6.11122 23.5196 6.00586 23.2652 6.00586 23C6.00586 22.7348 6.11122 22.4804 6.29875 22.2929C6.48629 22.1054 6.74064 22 7.00586 22ZM7.00586 28H24.9941C25.2594 28 25.5137 28.1054 25.7012 28.2929C25.8888 28.4804 25.9941 28.7348 25.9941 29C25.9941 29.2652 25.8888 29.5196 25.7012 29.7071C25.5137 29.8946 25.2594 30 24.9941 30H7.00586C6.74064 30 6.48629 29.8946 6.29875 29.7071C6.11122 29.5196 6.00586 29.2652 6.00586 29C6.00586 28.7348 6.11122 28.4804 6.29875 28.2929C6.48629 28.1054 6.74064 28 7.00586 28ZM7.00586 34H24.9941C25.2594 34 25.5137 34.1054 25.7012 34.2929C25.8888 34.4804 25.9941 34.7348 25.9941 35C25.9941 35.2652 25.8888 35.5196 25.7012 35.7071C25.5137 35.8946 25.2594 36 24.9941 36H7.00586C6.74064 36 6.48629 35.8946 6.29875 35.7071C6.11122 35.5196 6.00586 35.2652 6.00586 35C6.00586 34.7348 6.11122 34.4804 6.29875 34.2929C6.48629 34.1054 6.74064 34 7.00586 34Z" fill="url(#paint0_linear_1_117206)"/>
<defs>
<linearGradient id="paint0_linear_1_117206" x1="46.6286" y1="47.7714" x2="-9.42657" y2="17.3957" gradientUnits="userSpaceOnUse">
<stop stop-color="#CB8A1B"/>
<stop offset="0.463542" stop-color="#DDA440"/>
<stop offset="0.739583" stop-color="#E9C005"/>
<stop offset="1" stop-color="#E9C104"/>
</linearGradient>
</defs>
</svg>

<svg width="32" height="44" fill="none" xmlns="http://www.w3.org/2000/svg"><path d="M4 0C1.801 0 0 1.801 0 4v36c0 2.199 1.801 4 4 4h24c2.199 0 4-1.801 4-4V11h-7c-2.199 0-4-1.801-4-4V0H4zm19 .434V7c0 1.125.875 2 2 2h6.42L23 .434zM7.006 16h17.988a1 1 0 110 2H7.006a1 1 0 010-2zm0 6h17.988a1 1 0 110 2H7.006a1 1 0 010-2zm0 6h17.988a1 1 0 110 2H7.006a1 1 0 010-2zm0 6h17.988a1 1 0 110 2H7.006a1 1 0 010-2z" fill="url(#paint0_linear_1_117206)"/><defs><linearGradient id="paint0_linear_1_117206" x1="46.629" y1="47.771" x2="-9.427" y2="17.396" gradientUnits="userSpaceOnUse"><stop stop-color="#CB8A1B"/><stop offset=".464" stop-color="#DDA440"/><stop offset=".74" stop-color="#E9C005"/><stop offset="1" stop-color="#E9C104"/></linearGradient></defs></svg>
